X:1
T:The Happy Crowning Day
T:William James Kirkpatrick
T:The Happy Crowning Day
T:Public Domain
T:Public Domain
T:Public Domain
C:William James Kirkpatrick
Z:Public Domain
%%score 1 ( 2 3 )
L:1/8
M:4/4
K:D
V:1 treble 
V:2 bass 
V:3 bass 
V:1
 [FA]>[EG] | [DF]>[DF] [DF]>[EG] [GB]<[FA] [^E^G]>[FA] | [Fd]>[Fd] [Fd]>[DF] [FA]2 [FA]>[FA] | %3
w: 1.~There’s an|hour which no man know- eth, Nor the|an- gels round the throne, When the|
w: 2.~What a|bless- èd trans- for- ma- tion, In the|twink- ling of an eye, When the|
w: 3.~Though our|sins have been as scar- let, Let us|seek the streams that flow From the|
 [GB]>[GB] [GB]>[GB] [GB]<[FA] [FA]>[DF] | [CE]6 [CA]>[B,G][DF]>[DF][DF]>[EG][GB]<[FA][^E^G]>[FA] | %5
w: Lord shall come in glo- ry from the|sky; All the saints shall rise to meet Him, For He|
w: mor- tal shall im- mor- tal life put|on! Those who love Him shall be like Him, When He|
w: cross that rose on Cal- v’ry’s rug- ged|height; He is a- ble still to keep us, And pre-|
 [Fd]>[Fd] [Fd]>[DF] [FA]2 [FA]>[FA] | [Gc]>[GB] [GB]>[EG] | [FB]<[FA] [CA]>[A,C] | [A,D]6 || %9
w: call- eth for his own; They shall|hear the trum- pet|sound- ing by and|by.|
w: com- eth from on high, At the|noon- tide, at the|mid- night, or at|dawn.|
w: sent us white as snow, When He|comes a- gain, as|clouds of dazz- ling|light.|
"^Refrain" [DF]>[EG] | [FA]<[FA] z2 [Ad]<[Gd] z2 | [GB]<[Gd] [Gd]>[GB] [FA]4 | %12
w: Are you|rea- dy? rea- dy?|Look- ing for the King?|
w: |||
w: |||
 [FA]<[Fd] [Ad]>[Ad] [^Gd][Gd][Gc][Gd] | [Ae]6 [Ad][Ae] | [Af]<[Af] z2 [Ad]<[Ad] z2 | %15
w: Rea- dy, while you la- bor, watch and|pray? Are you|rea- dy? rea- dy?|
w: |||
w: |||
 [Ge]<[Gd] [Gd]>[GB] [FA]4 | [GB]<[GB] [Ge]>[Gd] [Gc][Gc][GB][Gc] | [Fd]6 |] %18
w: Look- ing for the King?|Rea- dy for the hap- py crown- ing|day?|
w: |||
w: |||
V:2
 [D,A,]>[D,A,] | [D,A,]>[D,A,] [D,A,]>[D,A,] [D,D]<[D,D] [D,D]>[D,D] | %2
w: ~ ~|~ ~ ~ ~ ~ ~ ~ ~|
 [D,A,]>[D,A,] [D,A,]>[D,A,] [D,D]2 [D,D]>[D,D] | %3
w: ~ ~ ~ ~ ~ ~ ~|
 [G,D]>[G,D] [G,D]>[G,D] [D,D]<[D,D] [D,A,]>[D,A,] | %4
w: ~ ~ ~ ~ ~ ~ ~ ~|
 [A,,A,]6 [A,,A,]>[A,,A,][D,A,]>[D,A,][D,A,]>[D,A,][D,D]<[D,D][D,D]>[D,D] | %5
w: ~ ~ ~ ~ ~ ~ ~ ~ ~ ~ ~|
 [D,A,]>[D,A,] [D,A,]>[D,A,] [D,D]2 [D,D]>[D,D] | [G,,D]>[G,,D] [G,,D]>[G,,B,] | %7
w: ~ ~ ~ ~ ~ ~ ~|~ ~ ~ ~|
 [A,,D]<[A,,D] [A,,G,]>[A,,G,] | [D,F,]6 || [D,A,]>[D,A,] | [D,D]<[D,D] A,>A, [F,D]<[F,D] D>D | %11
w: ~ ~ ~ ~|~|~ ~|~ ~ are you ~ ~ are you|
 [G,D]<[G,B,] [G,B,]>[G,D] [D,D]4 | [D,D]<[D,A,] [F,A,]>[F,A,] [E,B,][E,B,][E,B,][E,B,] | %13
w: ~ ~ ~ ~ ~|~ ~ ~ ~ while you la- bor,|
 [A,C][A,C] [A,C]>[A,C] (A,G,)[F,D][E,C] | [D,D]<[D,D] z2 [F,D]<[F,D] z2 | %15
w: watch, and pray? * * * * *||
 [G,B,]<[G,B,] [G,B,]>[G,D] [D,D]4 | [G,D]<[G,D] [G,B,]>[G,E] [A,E][A,E][A,E]A, | [D,A,]6 |] %18
w: |||
V:3
 x2 | x8 | x8 | x8 | x16 | x8 | x4 | x4 | x6 || x2 | x2 A,>A, x4 | x8 | x8 | x4 C2 x2 | x8 | x8 | %16
w: ||||||||||~ ~||||||
 x7 A, | x6 |] %18
w: ||

